X:1
T:Who Will Our Pilot Be?
T:Who Will Our Pilot Be?
T:Ira Bishop Wilson
T:Lizzie De Armond, 1907
T:Public Domain Courtesy of the Cyber Hymnal™
C:Ira Bishop Wilson
Z:Public Domain
Z:Courtesy of the Cyber Hymnal™
%%score ( 1 2 ) ( 3 4 )
L:1/8
Q:1/4=100
M:6/8
K:Db
V:1 treble 
V:2 treble 
V:3 bass 
V:4 bass 
V:1
 [FA] | [FB]2 [FA] [DF][CE]D | [CG]2 [CG] [CG]3 | [CE][DF][EG] [Ac]2 [GB] | A3- [FA]2 [FA] | %5
w: 1.~We|sail a- long toward the|har- bor light,|O- ver the great life|sea; The break-|
w: 2.~We|sail a- long in the|morn- ing bright,|Hap- py and glad are|we; But still|
w: 3.~We|sail a- long, there are|shoals, they say,|Dan- gers from which to|flee; We face|
 [FB]2 [FA] [DF][CE]D | [CG]2 [CG] [CG]3 | [D=G][DG][DG] [Ec]2 [DB] | (z2 F [CGA]2) || %9
w: * ers roar and the|waves dash high,|Who will our pi- lot||
w: * we ask, as the|rocks draw near,|Who will our pi- lot||
w: * the storm with a|heav- y heart,|Who will our pi- lot||
"^Refrain" [GA] | d>cB [FA]2 [FB] | c3- [Gc]2 [EG] | cB[FA] [EG]2 [CA] | F3- [DF]2 [DF]/[EG]/ | %14
w: |be? * The Christ will|our pi- lot|* be, A won- der-|ful guide is He;|
w: |be? * * * *||||
w: |be? * * * *||||
 A3 d3 | d3- !fermata![=Ed]2 z | [FA][FB][FA] [DFf]2 [CEe] | [Dd]3- [Dd]2 |] %18
w: * So|we’ll sail,|* sail sail! Christ will|our *|
w: ||||
w: ||||
V:2
 x | x5 D | x6 | x6 | F2 F x3 | x5 D | x6 | x6 | [CA]3- x2 || x | F3 x3 | G2 G x3 | G2 x4 | %13
 D2 D x3 | (F2 F) (F2 F) | G2 D x3 | x6 | x5 |] %18
V:3
 z | [D,A,]3 [A,,A,]3 | [E,A,]2 [E,A,] [E,A,]3 | [A,,A,]3 [A,,A,]3 | ([D,A,]2 [D,A,] [D,A,]2) z | %5
w: |~ ~|~ ~ ~|~ ~|~ * *|
 [D,A,]3 [A,,A,]3 | [E,A,]2 [E,A,] [E,A,]3 | [E,B,][E,B,][E,B,] [E,B,]2 [E,=G,] | %8
w: ~ ~|~ ~ ~|~ ~ ~ ~ ~|
 [A,,A,]3- [A,,A,]2 || A, | [D,A,]3 [D,A,]2 [D,A,] | [E,A,]2 [E,A,] [E,A,]2 [C,A,] | %12
w: ~ *|The|Christ will our|pi- lot be, A|
 [A,,A,]3 [A,,A,]2 [A,,A,] | [D,A,]2 [D,A,] [D,A,]2 z | [D,A,]2 [D,A,] [_C,_C]2 [C,A,] | %15
w: won- der- ful|guide is He;|So we’ll sail, yes,|
 [B,,B,]2 [B,,B,] !fermata![__B,,=G,]2 z | [A,,A,][A,,D][A,,D] [A,,A,]2 [A,,G,] | %17
w: so we’ll sail!||
 [D,F,]3- [D,F,]2 |] %18
w: |
V:4
 x | x6 | x6 | x6 | x6 | x6 | x6 | x6 | x5 || A, | x6 | x6 | x6 | x6 | x6 | x6 | x6 | x5 |] %18

